src/icons/trash.svg

<?xml version="1.0" encoding="UTF-8"?>
<svg id="export" xmlns="http://www.w3.org/2000/svg" width="24" height="24" viewBox="0 0 24 24">
  <defs>
    <style>
      .cls-1 {
        fill: #bb2649;
      }
    </style>
  </defs>
  <g id="icon_trash">
    <path class="cls-1" d="m8.5,19.5c-.28,0-.5-.22-.5-.5v-11c0-.28.22-.5.5-.5s.5.22.5.5v11c0,.28-.22.5-.5.5Z"/>
    <path class="cls-1" d="m15.5,19.5c-.28,0-.5-.22-.5-.5v-11c0-.28.22-.5.5-.5s.5.22.5.5v11c0,.28-.22.5-.5.5Z"/>
    <path class="cls-1" d="m23.5,3h-5.2l-1.22-2.33c-.17-.39-.47-.63-.87-.67H7.77c-.36.02-.68.26-.85.65l-1.22,2.35H.5c-.28,0-.5.22-.5.5s.22.5.5.5h1.5l1,19.5c0,.28.22.5.5.5h17c.28,0,.5-.22.5-.5l1-19.5h1.5c.28,0,.5-.22.5-.5s-.22-.5-.5-.5ZM7.81,1.09l-.03-.08,8.34-.02,1.05,2H6.82l.99-1.91Zm12.19,21.91H4L3,4h18l-1,19Z"/>
  </g>
</svg>

<svg id="export" xmlns="http://www.w3.org/2000/svg" width="24" height="24" viewBox="0 0 24 24"><defs><style>.cls-1{fill:#3c5583;}</style></defs><g id="icon_trash"><path class="cls-1" d="M8.5,19.5A.5.5,0,0,1,8,19V8A.5.5,0,0,1,9,8V19A.5.5,0,0,1,8.5,19.5Z"/><path class="cls-1" d="M15.5,19.5A.5.5,0,0,1,15,19V8a.5.5,0,0,1,1,0V19A.5.5,0,0,1,15.5,19.5Z"/><path class="cls-1" d="M22.5,3H18.3L17.08.67A1,1,0,0,0,16.21,0H7.77a1,1,0,0,0-.85.65L5.7,3H1.5a.5.5,0,0,0,0,1H3V23.5a.5.5,0,0,0,.5.5h17a.5.5,0,0,0,.5-.5V4h1.5a.5.5,0,0,0,0-1ZM7.81,1.09l0-.07,8.33,0,1.05,2H6.82ZM20,23H4V4H20Z"/></g></svg>
